!!!!SEGMENT: sonata45-3a.krn
!!!COM: Haydn, Franz Joseph
!!!CDT: 1732/03/31-1809/05/31
!!!CNT: Austrian
!!!OTL: Sonata No. 45 in A major
!!!SCT: Hob. XVI:30
!!!OMV: 3, Theme
!!!OMD: Tema con variazioni: Tempo di Menuetto.
!!!ODT: ~1774-1776
**kern	**kern	**dynam
*staff2	*staff1	*staff1/2
*Ipiano	*Ipiano	*Ipiano
*>[A,A,B,B]	*>[A,A,B,B]	*>[A,A,B,B]
*>norep[A,B]	*>norep[A,B]	*>norep[A,B]
*>A	*>A	*>A
*clefF4	*clefG2	*clefG2
*k[f#c#g#]	*k[f#c#g#]	*k[f#c#g#]
*A:	*A:	*A:
*M3/4	*M3/4	*M3/4
*MM112	*MM112	*MM112
=1-	=1-	=1-
!	!	!LO:DY:t=%s cantabile
4AA	(8.cc#L	mf
.	16ddJk	.
4r	4ee)	.
4r	4ee''	.
=2	=2	=2
.	(ff#8q	.
4r	(4ee)	.
(4B	4dd#'')	.
4A	4r	.
=3	=3	=3
4G#)	(8.bSSsL	.
.	16cc#Jk	.
4r	4ddn)	.
4r	4dd''	.
=4	=4	=4
.	(cc#32qLLL	.
.	ee32qJJJ	.
4r	(4dd)	.
4A	4cc#)	.
4AA	4r	.
=5	=5	=5
.	(16qqbbP	.
4r	(8aapL)	.
.	16gg#L	.
.	16ff#JJ)	.
4r	[4ff#	.
*clefG2	*	*
(4g#	(8ff#L]	.
.	16eeL	.
.	16ddJJ)	.
!!LO:LB:g=z
=6	=6	=6
.	(16qqddP	.
4a)	(8cc#pLL)	.
.	16b	.
.	16aJJ)	.
4r	[4a	.
(4d	(16aLL]	.
.	16g#	.
.	16f#	.
.	16eJJ	.
=7	=7	=7
4c#)	8.eL)	.
.	(16eeJk	.
*clefF4	*	*
(4G#	4dd	.
4A)	4cc#)	.
=8	=8	=8
.	(dd8q	.
(2E	()4cc#	.
.	4b'')	.
4EE'')	4r	.
=9:|!|:	=9:|!|:	=9:|!|:
*>B	*>B	*>B
4r	(8.bL	p
.	16cc#Jk	.
4G#''	4dd)	.
4E''	4dd	.
=10	=10	=10
.	(cc#32qLLL	.
.	ee32qJJJ	.
4r	(4dd)	.
4A''	4cc#'')	.
4AA''	4r	.
=11	=11	=11
4r	(16eeLL	<
.	16ff#	.
.	16ee	.
.	16ff#JJ	.
4c#''	4ggn)	.
4A''	4gg''	.
!!LO:LB:g=z
=12	=12	=12
.	(ff#32qLL	.
.	ggn32q	.
.	aa32qJJ	.
4r	(4gg)	.
4d''	4ff#'')	.
4D''	4r	.
=13	=13	=13
.	(16qqeeeP	.
4r	(8dddpL)	mf
.	16ccc#L	.
.	16bbJJ)	.
4r	(4.bb	.
(4d#	.	.
.	16ccc#LL	.
.	16aaJJ)	.
=14	=14	=14
.	(16qqaaP	.
4e)	(8gg#pL)	.
.	16ff#L	.
.	16eeJJ	.
(4G#	)[4dd	.
4A)	(16ddLL]	.
.	16cc#	.
.	16b	.
.	16aJJ	.
=15	=15	=15
*^	*	*
4d	4D	8.bL	.
.	.	16cc#Jk	.
(4c#	2E	4a	.
4B)	.	4g#t)	.
.	.	16qf#LL	.
.	.	16qg#JJ	.
*v	*v	*	*
=16	=16	=16

4A''	4g#	.
4E''	2a	.
4AA''	.	.
==:|!	==:|!	==:|!
*-	*-	*-
!!!PPR: Universal Edition 1-4
!!!PTL: Haydn Piano Sonatas, Vol. 1, No. 6
!!!YOY: 1901
!!!ONB: Stich und Druck von Jos. Eberle & Co. Wien VII. Seidengasse 3-9
!!!ONM-ue: I:6.3a
!!!YEC: 2021 Craig Stuart Sapp
!!!YEM: Licence: (CC BY-NC-SA 4.0) https://creativecommons.org/licenses/by-nc-sa/4.0
!!!YER: 2021
!!!ENC: Craig Stuart Sapp
!!!END: 2008/07/03/
!!!EED: Craig Stuart Sapp
!!!EEV: 2021/02/02
!!!YEC: 2021 Craig Stuart Sapp
!!!URL: https://github.com/craigsapp/haydn-keyboard-sonatas
!!!URL-vhv: https://verovio.humdrum.org?file=haydn/sonatas/sonata45-3a.krn
!!!URL-pdf: https://github.com/craigsapp/haydn-keyboard-sonatas/raw/master/reference-edition/sonata45-3a.pdf
!!!title: @{OTL}, mvmt. @{OMV} (@{SCT}), UE @{ONM-ue}
